X: 10602
M: 2/4
L: 1/16
K: D
dcde fefd | gagf e2fe | dcde fadf | edcB a3A |\
dcde fefd | gagf e2ag | fadf egce | d2d2d2 :|
|: ed |\
cdBc A2fe | decd B2ba | geba geba | gfgf gedc |\
dcde fefd | gagf e2ag | fadf egce | d2d2d2 :|


